!! G. F. Handel, "Fuga (15)" for keyboard (1735) from Hallische Haendel-Ausgabe
!! Baerenreiter Kassel (Basel) 1970; Serie IV, Band 17, pp.87-89
!! HHA iv/17,87   New Grove No. 185; for four voices.
!! NOTE:  Double-stops occur in bar 65.  A number of voicing abberations
!!        occur in this work; this encoding includes a number of
!!        interpretive 'fixes'.
!! NOTE:  This file has been validated through the double-entry
!!        error detection method.
**kern	**kern	**kern	**kern
*M4/4	*M4/4	*M4/4	*M4/4
=1	=1	=1	=1
1r	1r	8r	1r
.	.	8f	.
.	.	8a	.
.	.	8b-	.
.	.	8cc	.
.	.	8c	.
.	.	8g	.
.	.	8a	.
=2	=2	=2	=2
1r	1r	8b-	1r
.	.	8B-	.
.	.	8f	.
.	.	8g	.
.	.	8a	.
.	.	8f	.
.	.	8b-	.
.	.	8a	.
=3	=3	=3	=3
1r	1r	8g	1r
.	.	16a	.
.	.	16b-	.
.	.	8cc	.
.	.	8b-	.
.	.	8a	.
.	.	8g	.
.	.	8a	.
.	.	8f	.
=4	=4	=4	=4
1r	8r	4.cc	1r
.	8c	.	.
.	8e	.	.
.	8f	8cc	.
.	8g	8cc	.
.	8G	16b-	.
.	.	16a	.
.	8d	8b-	.
.	8e	8b-	.
=5	=5	=5	=5
1r	8f	8b-	1r
.	8F	16a	.
.	.	16g	.
.	8c	8a	.
.	8d	8a	.
.	8e	8g	.
.	8c	8cc	.
.	8f	8a	.
.	8e	8cc	.
=6	=6	=6	=6
2r	8d	4cc	1r
.	8c	.	.
.	4d	4bn	.
8r	4c	4cc	.
8F	.	.	.
8A	[4f	4a	.
8B-	.	.	.
=7	=7	=7	=7
8c	8f]	4g	1r
8C	16e-	.	.
.	16d	.	.
8G	[4e-	8b-	.
8A	.	8cc	.
8B-	8e-]	4f	.
8BB-	16d	.	.
.	16c	.	.
8F	[4d	8a	.
8G	.	8b-	.
=8	=8	=8	=8
8A	4d]	4.en	1r
8E	.	.	.
8A	[4c	.	.
8G	.	16f	.
.	.	16e	.
8F	4c]	4.d	.
8D	.	.	.
8G	[4B-	.	.
8F	.	16e	.
.	.	16d	.
=9	=9	=9	=9
4E	4B-]	4.c	1r
[4F	4A	.	.
.	.	16d	.
.	.	16c	.
8F]	4G	4.B-	.
16E	.	.	.
16D	.	.	.
4E	4G	.	.
.	.	16c	.
.	.	16B-	.
=10	=10	=10	=10
4F	4A	4A	8r
.	.	.	8cc
8E	4r	2.r	8ee
8D	.	.	8ff
8E	8G	.	8gg
8F	8A	.	8g
4G	4Bn	.	8dd
.	.	.	8ee
=11	=11	=11	=11
8D	4F	4A	8ff
8E	.	.	8f
4F	4r	4r	8cc
.	.	.	8dd
8C	2r	8r	4.ee
8D	.	8g	.
8E	.	[4cc	.
8C	.	.	16ff
.	.	.	16ee
=12	=12	=12	=12
8F	4a	4cc]	4.dd
8D	.	.	.
8G	[4g	[4b-	.
8F	.	.	16ee
.	.	.	16dd
8E	4g]	4b-]	4.cc
8C	.	.	.
[4F	4f	4a	.
.	.	.	16dd
.	.	.	16cc
=13	=13	=13	=13
8F]	4d	4g	4bn
[8E	.	.	.
8E]	4r	8g	4.cc
16D	.	16f	.
16C	.	16e	.
2D	2r	4.f	.
.	.	.	8dd
.	.	.	4b
.	.	8f	.
=14	=14	=14	=14
8C	1r	4e	4cc
8c	.	.	.
8d	.	4r	4b-
8e	.	.	.
8f	.	2r	4.a
8F	.	.	.
8A	.	.	.
8B-	.	.	8a
=15	=15	=15	=15
8c	2r	2r	8g
8C	.	.	8e
8D	.	.	8f
8E	.	.	8g
[2F	4B-	4c	8r
.	.	.	8ff
.	4A	4r	8aa
.	.	.	8bb-
=16	=16	=16	=16
4F]	4.G	1r	8ccc
.	.	.	8cc
4E	.	.	8gg
.	8c	.	8aa
4.D	4F	.	8bb-
.	.	.	8b-
.	4B-	.	8ff
8E	.	.	8gg
=17	=17	=17	=17
8F	1r	8r	4.aa
8FF	.	8cc	.
8AA	.	[4ff	.
8BB-	.	.	8aa
8C	.	8ff]	4.gg
8CC	.	16ee-	.
.	.	16dd	.
8GG	.	[4ee-	.
8AA	.	.	8ccc
=18	=18	=18	=18
4BB-	8r	4ee-]	4ff
.	8B-	.	.
4B-	8d	4dd	4r
.	8en	.	.
4.A	8f	4.cc	2r
.	8F	.	.
.	8c	.	.
16G	8d	16b-	.
16F	.	16a	.
=19	=19	=19	=19
4c	4e	4g	8r
.	.	.	8cc
4B-	4r	4r	8dd
.	.	.	8ee
4.A	2r	2r	8ff
.	.	.	8f
.	.	.	8cc
8F	.	.	8ee-
=20	=20	=20	=20
8B-	1r	2r	8dd
16A	.	.	8d
16G	.	.	.
8F#	.	.	8a
8D	.	.	8cc
8G	.	8r	4.b-
8Fn	.	8d	.
8En	.	[4g	.
8C	.	.	16cc
.	.	.	16b-
=21	=21	=21	=21
8F	1r	8g]	4.a
8G	.	8c	.
8A	.	4f	.
8F	.	.	16b-
.	.	.	16a
8c	.	4e	4g
8C	.	.	.
8C#	.	8a	4r
8AA	.	8e	.
=22	=22	=22	=22
8D	4r	4.f	8r
8Cn	.	.	8a
4BB-	8D	.	[4dd
.	8E	8g	.
2AA	8F	8a	4.dd]
.	8G	16g	.
.	.	16f	.
.	4A	8e	.
.	.	8a	8cc#
=23	=23	=23	=23
4D	4A	8f	4.dd
.	.	8d	.
4r	4r	[4b-	.
.	.	.	8gg
2r	2r	8b-]	4.ccn
.	.	16a	.
.	.	16g	.
.	.	4a	.
.	.	.	[8ff
=24	=24	=24	=24
8r	1r	4g	8ff]
8c	.	.	8ee
8d	.	4r	8dd
8e	.	.	8cc
8f	.	4.a	4.cc
8F	.	.	.
8A	.	.	.
8B-	.	16g	16b-
.	.	16f	16a
=25	=25	=25	=25
8c	1r	8e	8g
8C	.	8f	8a
8G	.	8g	8b-
8A	.	16f	16a
.	.	16e	16g
8B-	.	8d	8f
16A	.	8e	8g
16G	.	.	.
8F	.	8f	8a
8G	.	16e	8b-
.	.	16d	.
=26	=26	=26	=26
8A	1r	8c	8cc
8F	.	8f	8a
8B-	.	8d	8dd
8A	.	8f	8cc
8G	.	4f	8b-
8F	.	.	8a
8G	.	4e	8b-
8C	.	.	16cc
.	.	.	16b-
=27	=27	=27	=27
4.F	1r	4f	8a
.	.	.	8f
.	.	8r	4.dd
16E	.	8f	.
16D	.	.	.
4G	.	4.e-	.
.	.	.	16cc
.	.	.	16b-
4A	.	.	[4cc
.	.	16f	.
.	.	16e-	.
=28	=28	=28	=28
8B-	1r	4.d	8cc]
8A	.	.	8f
8G	.	.	4.b-
8F	.	16en	.
.	.	16d	.
8E	.	4c	.
8C	.	.	8b-
[4F	.	4d	8a
.	.	.	16bn
.	.	.	16cc
=29	=29	=29	=29
4F]	1r	4G	8bn
.	.	.	16a
.	.	.	16g
8E	.	[4cc	8gg
8F	.	.	8aa
4G	.	4cc]	8dd
.	.	.	8ee
4GG	.	4b	8ff
.	.	.	8ee
=30	=30	=30	=30
4C	1r	4cc	8ee
.	.	.	8cc
4r	.	8b-	8dd
.	.	8g	8ee
2r	.	8a	8ff
.	.	16g	4cc
.	.	16f	.
.	.	8e	.
.	.	8g	8b-
=31	=31	=31	=31
1r	1r	8c	4a
.	.	4f	.
.	.	.	4g
.	.	[8e	.
.	.	8e]	4.f
.	.	8A	.
.	.	4d	.
.	.	.	16g
.	.	.	16f
=32	=32	=32	=32
8r	1r	4c#	8e
8AA	.	.	8a
8BBn	.	4r	8g
8C#	.	.	8a
8D	.	4A	4f
8DD	.	.	.
8AA	.	8cn	8f
8BB-	.	8d	8g
=33	=33	=33	=33
8C	1r	4G	4e
8CC	.	.	.
8GG	.	8B-	8e
8AA	.	[8A	8f
2BB-	.	4A]	8d
.	.	.	8c#
.	.	4G	8d
.	.	.	8e
=34	=34	=34	=34
4AA	2r	4A	8c#
.	.	.	8e
8r	.	4r	8a
8C#	.	.	8g
8D	4A	2r	8f#
8Cn	.	.	8d
8BB-	4G	.	8g
8AA	.	.	8a
=35	=35	=35	=35
8GG	4d	2r	8.b-
8AA	.	.	.
.	.	.	16a
8BB-	4d	.	8g
8GG	.	.	8fn
8C	4G	8r	8e
8BB-	.	8e	4.r
8AA	4r	8f	.
8GG	.	8g	.
=36	=36	=36	=36
8FF	1r	4a	8r
8F	.	.	4dd
8E	.	4g	.
8A	.	.	8cc
8D	.	8r	4.ff
8G	.	8bn	.
8C	.	4cc	.
[8c	.	.	8ee
=37	=37	=37	=37
8c]	1r	4g	4dd
[8B-	.	.	.
8B-]	.	8dd	[4gg
16A	.	16cc	.
16G	.	16b-	.
8A	.	4cc	4gg]
8G	.	.	.
8A	.	8cc	4ff
8B-	.	8dd	.
=38	=38	=38	=38
8c	4r	8g	4ee
8A	.	[8cc	.
8F	8a	8cc]	4dd
8G	16g	16bn	.
.	16f	16b	.
4C	8e	8cc	8cc
.	8r	8c	8e
4r	4r	8d	8f
.	.	8e	8g
=39	=39	=39	=39
8r	1r	4f	8a
8F	.	.	8b-
8A	.	4r	8cc
8B-	.	.	16b-
.	.	.	16a
8c	.	4e	8g
8C	.	.	8g
[4c	.	4r	8a
.	.	.	8e
=40	=40	=40	=40
8c]	1r	4d	4f
[8B-	.	.	.
8B-]	.	4d	4g
16A	.	.	.
16G	.	.	.
4A	.	4c	8r
.	.	.	8cc
4G	.	4B-	8dd
.	.	.	8ee
=41	=41	=41	=41
8A	1r	4r	8ff
8F	.	.	8f
8G	.	8b-	8ee-
8A	.	8cc	8ff
8B-	.	4f	8dd
8A	.	.	8cc
8G	.	4r	8b-
8F	.	.	8a
=42	=42	=42	=42
4.C	1r	4en	8g
.	.	.	8c
.	.	8r	4.cc
16BB-	.	8c	.
16AA	.	.	.
4.D	.	4.f	.
.	.	.	16b-
.	.	.	16a
.	.	.	[4b-
8GG	.	16e	.
.	.	16d	.
=43	=43	=43	=43
4C	2r	4.e	8b-]
.	.	.	16a
.	.	.	16g
8F	.	.	[4a
8FF	.	16d	.
.	.	16c	.
2BB-	8r	4d	8a]
.	16B-	.	16g
.	16A	.	16f
.	8B-	4r	8g
.	8A	.	8f
=44	=44	=44	=44
2C	8G	1r	8e
.	16c	.	16a
.	16B-	.	16g
.	8c	.	8a
.	8B-	.	8g
4D	4A	.	8f
.	.	.	16g
.	.	.	16a
8G	8r	.	[4b-
8F	8d	.	.
=45	=45	=45	=45
4E	4.c	1r	8b-]
.	.	.	8cc
4F	.	.	4a
.	[8f	.	.
4C	8f]	.	4.g
.	16e	.	.
.	16d	.	.
4r	4e	.	.
.	.	.	8cc
=46	=46	=46	=46
8f	8r	1r	4.dd
8F	8a	.	.
8G	4bn	.	.
8g	.	.	8ee
8a	4cc	.	4ff
8A	.	.	.
8G	4r	.	8dd
8F	.	.	8a
=47	=47	=47	=47
8G	1r	1r	8bn
8E	.	.	8g
8A	.	.	8cc
8G	.	.	8e
8F	.	.	8d
8D	.	.	8cc
8G	.	.	8b
8GG	.	.	8f
=48	=48	=48	=48
4C	4r	8e	4cc
.	.	8c	.
2.r	8B-	8d	4r
.	8G	8e	.
.	8A	4f	2r
.	8F	.	.
.	8G	8e-	.
.	8A	8d	.
=49	=49	=49	=49
2r	4.B-	8d	1r
.	.	8g	.
.	.	8c	.
.	8A	[8f	.
4C	8G	8f]	.
.	8c	8en	.
8D	4B-	8.d	.
8E	.	.	.
.	.	16c	.
=50	=50	=50	=50
8F	4A	4c	8r
8FF	.	.	8f
8F	4r	4r	8a
8G	.	.	8b-
8A	2r	2r	8cc
8AA	.	.	8c
8E	.	.	8g
8F	.	.	8a
=51	=51	=51	=51
8G	1r	1r	8b-
8GG	.	.	8B-
8D	.	.	8f
8E	.	.	8g
8F	.	.	8a
8G	.	.	8b-
8A	.	.	8cc
8B-	.	.	8dd
=52	=52	=52	=52
8c	1r	4e	4g
8C	.	.	.
8E	.	4r	8g
8F	.	.	8a
8G	.	2r	8b-
8A	.	.	8cc
8B-	.	.	8dd
8c	.	.	8ee-
=53	=53	=53	=53
8d	1r	4f#	4a
8c	.	.	.
8B-	.	4.g	4dd
8G	.	.	.
4A	.	.	4.cc
.	.	16f#	.
.	.	16en	.
4D	.	4f#	.
.	.	.	16dd
.	.	.	16cc
=54	=54	=54	=54
4.G	1r	8r	4.b-
.	.	8d	.
.	.	[4g	.
8GG	.	.	16cc
.	.	.	16b-
8AA	.	8g]	4.a
8GG	.	8c	.
8AA	.	[4fn	.
8BB-	.	.	8a
=55	=55	=55	=55
8C	1r	8f]	4.g
8GG	.	16e	.
.	.	16d	.
[4C	.	8e	.
.	.	8e	8g
4C]	.	8f	8a
.	.	8e	8g
4BB-	.	8f	8a
.	.	8g	8b-
=56	=56	=56	=56
4.AA	1r	4a	8cc
.	.	.	8e
.	.	[4a	[4cc
8AA	.	.	.
8BB-	.	4a]	4cc]
8AA	.	.	.
8BB-	.	[4g	4b-
8C	.	.	.
=57	=57	=57	=57
8D	1r	4g]	4.a
8DD	.	.	.
[4D	.	4f	.
.	.	.	8a
4D]	.	8g	8b-
.	.	8f	8a
4C	.	8g	8b-
.	.	8a	8cc
=58	=58	=58	=58
8BB-	1r	8b-	4.dd
8C	.	8f	.
8D	.	[4b-	.
8E	.	.	8dd
8F	.	8b-]	4.cc
8C	.	16a	.
.	.	16g	.
8F	.	8a	.
8E	.	8g	[8cc
=59	=59	=59	=59
8D	4r	8f	4.cc]
8C	.	8e	.
4D	8r	4f	.
.	8F	.	8bn
4C	8G	8e	4cc
.	8A	8c	.
4r	[4B-	8d	4r
.	.	8e	.
=60	=60	=60	=60
2r	4B-]	8f	1r
.	.	8F	.
.	4A	8c	.
.	.	8d	.
8r	4G	4e	.
8C	.	.	.
8D	4r	8f	.
8E	.	8g	.
=61	=61	=61	=61
8F	1r	4c	8r
8FF	.	.	8a
8GG	.	4r	8b-
8AA	.	.	8cc
8BB-	.	4d	8f
4B-	.	.	8dd
.	.	8g	8ee
8A	.	8a	8ff
=62	=62	=62	=62
8G	4e	4g	4b-
8C	.	.	.
8F	4d	4f	4a
8BB-	.	.	.
2C	2r	4e	8g
.	.	.	16cc
.	.	.	16b-
.	.	4f	8a
.	.	.	16g
.	.	.	16f
=63	=63	=63	=63
2C	8r	4e	4e
.	16c	.	.
.	16B-	.	.
.	8A	4f	4r
.	16G	.	.
.	16F	.	.
2C	4E	4g	8r
.	.	.	16cc
.	.	.	16b-
.	4F	4r	8a
.	.	.	16g
.	.	.	16f
=64	=64	=64	=64
2C	4G	8r	4e
.	.	16c	.
.	.	16B-	.
.	2r	8A	4f
.	.	16G	.
.	.	16F	.
4.C	.	4.E	8g
.	.	.	8c
.	8r	.	[4cc
16BB-	16D	8r	.
16AA	16C	.	.
=65	=65	=65	=65
4D	4F	4.f	8cc]
.	.	.	16b-
.	.	.	16a
4GG	4G	.	[4b-
.	.	16g	.
.	.	16f	.
4C	4G 4c	4e 4g	4b-]
4FF 4F	4c	[4f	8a
.	.	.	8b-
=66	=66	=66	=66
2C	4.c	8f]	2g
.	.	16e	.
.	.	16d	.
.	.	4e	.
.	8B-	.	.
2FF	2A	2c	2f
====	====	====	====
*-	*-	*-	*-
